X: 34860
T: Robbie Dagenais
R: reel
M: 4/4
K: Amajor
dc2[AA] cAec|A2dB ^GBc2|[AA]gfd edcd|efec dcB2<c2|AE ^GFED|
FEDC A,CEA|cBAF2cBA|BcB^G EFDE|dcAE AcAe|
cAcd B^GBc|A2gf dedc|defe dcB2|[cc]efa e^gdf|
cedB cABF|^G2[FF]B AFdc|BA^GE cBA2|BdBd fafg|
fegf dcdB|dAFG gagf
g|fedc A[eB][e2c2]<[e2e2A2]|cd BGEB|
EGBc AECA,2|CB,G, B,EGF|CA,^G,=G, B,EG^E|ABcd fafg|
fegf dcdB|dAFG2gagf|gfed c2>[A2e2]|[AeAe]cAc ecAc|
e2>c2 dBGA|BGBG cBA^G|GECE DFEC|D|

